X: 454
T: Daji ge
L: 1/16
M: 2/4
K: Bb
c2> d2 c2 B G [I:setbarnb 1]| 
F4F4 | 
B2> c2 B2 A G | 
F4F4 | 
c2 d2 c2 d d | 
B2 A GF4 | 
B2 c c B2 A G | 
F4F4 | 
d4d2 G2 | 
F4F4 | 
F2> G2 B2 A G | 
F4F4 | 
c2 d d d2 c d | 
B2 A GF4 | 
B2 A G c2 z2 | 
F2> G2 B2 A G | 
F4f4 | 
d4d2 G2 | 
F4F4 | 
F2> G2 B2 A G | 
F4F4 |]

@@@ Tune index: 9328
